X: 3
T: Bruach Na Carraige Baine
R: waltz
M: 3/4
L: 1/8
K: Dmaj
|:(de)|f4ef|da-a3f|(e2 d3) B|Af-f2 fe|(d3e) B2|(A3 F) A2|B2 (B4|B4):|Bc||
d4 Bc|de-e3f|a1 b3 a|f4fe|d4 Bc|de-e2 f2|b6|(a5a) f|
g4g2|fa-a2af|e4 dB|Af-f2fe|d3e B2|A3 F A2|B2 (B4|B4)||


Tune 1165	Setting 14433

